X: 1
T: Stan Chapman's
R: jig
M: 6/8
L: 1/8
K: Amaj
"A"~E3 EFA|"Bm"~B3 Bce|"D"fea fec|"E"ecA BAF|
"A"~E3 EFA|"Bm"~B3 Bce|"D"fea fec|"E"ecA "A"A3:|
"A"e3 ece|"Bm"~f3 fga|"A"ecA "E"~B3|"F#m"cAF F3|
"A"e3 ece|"Bm"~f3 fga|"E"ecA ~B3 | "A"cAA A3:||

